assets/01_base/Base_54.svg

<svg xmlns="http://www.w3.org/2000/svg" width="500" height="500" fill="none" viewBox="0 0 500 500"><g clip-path="url(#Base_54_svg_clip0_70_681)"><path fill="#ffb600" d="M345.235 282.529c-70.562 0-127.764-57.202-127.764-127.764C217.471 84.202 274.673 27 345.235 27 415.798 27 473 84.202 473 154.765c0 70.562-57.202 127.764-127.765 127.764"/><path fill="#ffb600" d="M154.778 472.986c-70.562 0-127.764-57.202-127.764-127.764 0-70.563 57.202-127.765 127.764-127.765 70.563 0 127.765 57.202 127.765 127.765 0 70.562-57.202 127.764-127.765 127.764"/><path fill="#ffb600" d="M250.001 431.495c-100.237 0-181.495-81.258-181.495-181.495S149.764 68.505 250 68.505 431.496 149.763 431.496 250s-81.258 181.495-181.495 181.495"/><path fill="#ffed6c" d="M330.33 277.443c-59.522 0-107.774-48.252-107.774-107.774S270.808 61.896 330.33 61.896s107.774 48.252 107.774 107.773c0 59.522-48.252 107.774-107.774 107.774"/><path fill="#ffed6c" d="M169.668 438.104c-59.522 0-107.774-48.252-107.774-107.773 0-59.522 48.252-107.774 107.774-107.774s107.773 48.252 107.773 107.774-48.252 107.773-107.773 107.773"/><path fill="#ffed6c" d="M250 403.1c-84.555 0-153.1-68.545-153.1-153.1S165.445 96.9 250 96.9 403.1 165.445 403.1 250 334.554 403.1 250 403.1"/><path fill="#ffb600" d="M429.455 252.013c0-26.94-15.952-54.071-39.669-67.52-20.657-11.709-43.789-11.152-63.467 1.536-28.232 18.196-29.891 45.598-19.026 64.678 11.723 20.576 35.589 29.388 55.512 20.508l.286-.136c10.743-5.127 18.264-13.491 20.249-24.411 1.85-10.186-3.372-20.344-13.218-25.607l-15.259 13.586c3.835 3.467 2.598 10.933-5.725 14.496-9.016 3.251-16.183-2.624-20.249-9.764-5.957-10.444-.585-22.67 12.362-31.02 14.755-9.519 27.864-5.834 36.269-1.061 15.054 8.541 25.58 26.478 25.58 43.64l26.355 1.088z"/></g><defs><clipPath id="Base_54_svg_clip0_70_681"><rect width="446" height="446" fill="#fff" transform="matrix(-1 0 0 1 473 27)"/></clipPath></defs></svg>

<svg width="500" height="500" viewBox="0 0 500 500" fill="none" xmlns="http://www.w3.org/2000/svg">
<g clip-path="url(#clip0_70_681)">
<path d="M345.235 282.529C274.673 282.529 217.471 225.327 217.471 154.765C217.471 84.2022 274.673 27 345.235 27C415.798 27 473 84.2022 473 154.765C473 225.327 415.798 282.529 345.235 282.529Z" fill="#FFB600"/>
<path d="M154.778 472.986C84.2158 472.986 27.0136 415.784 27.0136 345.222C27.0136 274.659 84.2158 217.457 154.778 217.457C225.341 217.457 282.543 274.659 282.543 345.222C282.543 415.784 225.341 472.986 154.778 472.986Z" fill="#FFB600"/>
<path d="M250.001 431.495C149.764 431.495 68.5057 350.237 68.5057 250C68.5057 149.763 149.764 68.5048 250.001 68.5048C350.238 68.5048 431.496 149.763 431.496 250C431.496 350.237 350.238 431.495 250.001 431.495Z" fill="#FFB600"/>
<path d="M330.33 277.443C270.808 277.443 222.556 229.191 222.556 169.669C222.556 110.148 270.808 61.8956 330.33 61.8956C389.852 61.8956 438.104 110.148 438.104 169.669C438.104 229.191 389.852 277.443 330.33 277.443Z" fill="#FFED6C"/>
<path d="M169.668 438.104C110.146 438.104 61.8938 389.852 61.8938 330.331C61.8938 270.809 110.146 222.557 169.668 222.557C229.189 222.557 277.441 270.809 277.441 330.331C277.441 389.852 229.189 438.104 169.668 438.104Z" fill="#FFED6C"/>
<path d="M250 403.1C165.445 403.1 96.8996 334.555 96.8996 250C96.8996 165.445 165.445 96.9 250 96.9C334.554 96.9 403.1 165.445 403.1 250C403.1 334.555 334.554 403.1 250 403.1Z" fill="#FFED6C"/>
<path d="M429.455 252.013C429.455 225.073 413.503 197.942 389.786 184.493C369.129 172.784 345.997 173.341 326.319 186.029C298.087 204.225 296.428 231.627 307.293 250.707C319.016 271.283 342.882 280.095 362.805 271.215L363.091 271.079C373.834 265.952 381.355 257.588 383.34 246.668C385.19 236.482 379.968 226.324 370.122 221.061L354.863 234.647C358.698 238.114 357.461 245.58 349.138 249.143C340.122 252.394 332.955 246.519 328.889 239.379C322.932 228.935 328.304 216.709 341.251 208.359C356.006 198.84 369.115 202.525 377.52 207.298C392.574 215.839 403.1 233.776 403.1 250.938L429.455 252.026V252.013Z" fill="#FFB600"/>
</g>
<defs>
<clipPath id="clip0_70_681">
<rect width="446" height="446" fill="white" transform="matrix(-1 0 0 1 473 27)"/>
</clipPath>
</defs>
</svg>
